client/public/img/game/fall/obstacles/clearing_boulder_2.svg

<?xml version="1.0" encoding="UTF-8" standalone="no"?>
<!-- Created with Inkscape (http://www.inkscape.org/) -->

<svg
   width="332.73856"
   height="335.43646"
   viewBox="0 0 88.037076 88.750901"
   version="1.1"
   id="svg5"
   xmlns="http://www.w3.org/2000/svg"
   xmlns:svg="http://www.w3.org/2000/svg">
  <defs
     id="defs2" />
  <path
     style="color:#000000;fill:#5a5a5a;stroke-linecap:round;stroke-linejoin:round;-inkscape-stroke:none"
     d="M 1.9838096,56.194777 5.0961698,33.110886 15.587647,14.025211 44.705618,1.9843115 77.402589,16.353352 86.08444,39.77774 81.275161,66.15292 61.425985,86.771909 25.947052,84.376814 Z"
     id="path2" />
  <path
     id="path2153"
     style="fill:#4b4b4b;fill-opacity:1;stroke:none;stroke-width:3.70417;stroke-linecap:round;stroke-linejoin:round;stroke-dasharray:none;stroke-opacity:1;paint-order:normal"
     d="M 1.9838096,56.194777 21.401217,52.405396 26.550258,36.625058 40.08008,24.829492 44.705618,1.9843115 15.587647,14.025211 5.0961698,33.110886 Z" />
  <path
     id="path2570"
     style="fill:#676767;fill-opacity:1;stroke:none;stroke-width:3.70417;stroke-linecap:round;stroke-linejoin:round;stroke-dasharray:none;stroke-opacity:1;paint-order:normal"
     d="M 74.178079,46.826421 58.772609,64.724359 42.446001,70.675361 25.817129,83.337431 61.425985,86.771909 81.275161,66.15292 86.08444,39.77774 77.402589,16.353352 Z" />
  <rect
     style="fill:#000000;fill-opacity:0;stroke:none;stroke-width:3.70417;stroke-linecap:round;stroke-linejoin:miter;stroke-dasharray:none;stroke-opacity:1;paint-order:normal"
     id="rect2804"
     width="46.302086"
     height="46.302086"
     x="0.46090564"
     y="0.52433449" />
  <path
     style="opacity:0.8;fill:#2c3d18;fill-opacity:1;stroke-width:4.56213;stroke-linecap:round;stroke-linejoin:round"
     d="M 10.322821,67.078333 2.7448072,56.825726 6.1623432,31.119916 11.808706,22.650372 c 7.099807,-1.141188 10.523196,5.280358 8.320955,11.88708 -1.07422,3.222658 -4.831906,5.442938 -5.349186,9.063897 -1.144607,8.012249 10.267683,14.997387 0.445766,21.545331 -1.870288,1.24686 -2.716949,2.556356 -4.90342,1.931653 z"
     id="path4-7" />
  <path
     style="opacity:1;fill:#2c3d18;fill-opacity:1;stroke-width:3.96875;stroke-linecap:round;stroke-linejoin:round"
     d="M 8.7898176,64.501751 2.1974544,55.582671 5.1704809,33.22034 10.082438,25.852405 c 6.176356,-0.992757 9.154475,4.593557 7.238673,10.340962 -0.934499,2.803497 -4.203434,4.734991 -4.653433,7.884983 -0.995731,6.970119 8.932195,13.046721 0.387786,18.742993 -1.627025,1.084684 -2.363563,2.223858 -4.2656464,1.680408 z"
     id="path4" />
  <path
     style="opacity:0.8;fill:#2c3d18;fill-opacity:1;stroke-width:3.46037;stroke-linecap:round;stroke-linejoin:round"
     d="M 30.53367,6.2455798 40.902466,2.4136337 69.416656,14.585699 C 70.166909,22.75892 66.66758,22.758501 59.160564,21.68607 54.474017,21.016564 49.779874,24.049946 44.734413,23.489339 41.538132,23.134197 39.043102,17.36608 37.295928,15.036516 35.256123,12.316775 22.536879,12.909571 30.53367,6.2455798 Z"
     id="path5-3" />
  <path
     style="opacity:1;fill:#2c3d18;fill-opacity:1;stroke-width:3.00449;stroke-linecap:round;stroke-linejoin:round"
     d="M 34.379112,5.1367802 43.381885,1.8096684 68.139512,12.378141 c 0.651412,7.096452 -2.386903,7.096088 -8.904917,6.164943 -4.069124,-0.581303 -8.144845,2.05245 -12.525598,1.5657 C 43.933806,19.80043 41.76748,14.792225 40.250485,12.769566 38.479411,10.408134 27.435847,10.922833 34.379112,5.1367802 Z"
     id="path5" />
  <path
     style="opacity:0.8;fill:#2c3d18;fill-opacity:1;stroke-width:4.74501;stroke-linecap:round;stroke-linejoin:round"
     d="m 22.107858,82.183366 c 9.970984,-0.29492 15.604487,-15.346737 25.345325,-14.372653 4.882713,0.488272 10.366505,4.770066 15.145379,4.172708 8.10736,-1.01342 5.249224,-6.603535 15.609014,-2.163629 l -15.14538,14.83629 z"
     id="path6-4" />
  <path
     style="opacity:1;fill:#2c3d18;fill-opacity:1;stroke-width:3.96875;stroke-linecap:round;stroke-linejoin:round"
     d="m 27.145026,83.244742 c 8.339786,-0.246673 13.051679,-12.836096 21.19897,-12.021367 4.083928,0.408394 8.670602,3.98971 12.667679,3.490076 6.78104,-0.84763 4.39048,-5.523233 13.055465,-1.809671 L 61.399461,85.312935 Z"
     id="path6" />
  <path
     style="color:#000000;fill:#212121;stroke-linecap:round;stroke-linejoin:round;-inkscape-stroke:none"
     d="M 43.947234,0.1512876 14.830046,12.192303 a 1.9845734,1.9845734 0 0 0 -0.980469,0.876953 L 3.35739,32.155194 A 1.9845734,1.9845734 0 0 0 3.1288743,32.8466 L 0.01754624,55.930584 a 1.9845734,1.9845734 0 0 0 0.4550781,1.548829 L 24.435515,85.663006 a 1.9845734,1.9845734 0 0 0 1.376953,0.69336 l 35.480469,2.394531 a 1.9845734,1.9845734 0 0 0 1.5625,-0.603516 l 19.849609,-20.61914 a 1.9845734,1.9845734 0 0 0 0.521484,-1.019532 l 4.810547,-26.375 a 1.9845734,1.9845734 0 0 0 -0.0918,-1.044921 l -8.68164,-23.425782 a 1.9845734,1.9845734 0 0 0 -1.0625,-1.126953 L 45.503874,0.1669126 a 1.9845734,1.9845734 0 0 0 -1.55664,-0.015625 z m 0.734375,3.9902344 31.152343,13.689453 8.201172,22.126953 -4.605469,25.25 L 60.636687,84.729413 26.915984,82.454022 4.0702806,55.582928 7.01364,33.743084 16.990202,15.592694 Z"
     id="path3" />
</svg>

<svg xmlns="http://www.w3.org/2000/svg" width="332.739" height="335.436" viewBox="0 0 88.037 88.751"><path d="M1.984 56.195 5.096 33.11l10.492-19.086 29.118-12.04 32.697 14.368 8.681 23.425-4.809 26.375-19.849 20.619-35.479-2.395Z" style="color:#000;fill:#5a5a5a;stroke-linecap:round;stroke-linejoin:round;-inkscape-stroke:none"/><path d="m1.984 56.195 19.417-3.79 5.15-15.78L40.08 24.83l4.625-22.845-29.118 12.041L5.096 33.111Z" style="fill:#4b4b4b;fill-opacity:1;stroke:none;stroke-width:3.70417;stroke-linecap:round;stroke-linejoin:round;stroke-dasharray:none;stroke-opacity:1;paint-order:normal"/><path d="M74.178 46.826 58.773 64.724l-16.327 5.951-16.629 12.662 35.609 3.435 19.85-20.62 4.808-26.374-8.681-23.425Z" style="fill:#676767;fill-opacity:1;stroke:none;stroke-width:3.70417;stroke-linecap:round;stroke-linejoin:round;stroke-dasharray:none;stroke-opacity:1;paint-order:normal"/><path fill="none" d="M.461.524h46.302v46.302H.461z" style="fill:#000;fill-opacity:0;stroke:none;stroke-width:3.70417;stroke-linecap:round;stroke-linejoin:miter;stroke-dasharray:none;stroke-opacity:1;paint-order:normal"/><path d="M10.323 67.078 2.745 56.826 6.162 31.12l5.647-8.47c7.1-1.14 10.523 5.28 8.32 11.887-1.074 3.223-4.831 5.443-5.349 9.064-1.144 8.013 10.268 14.998.446 21.546-1.87 1.247-2.717 2.556-4.903 1.931" style="opacity:.8;fill:#2c3d18;fill-opacity:1;stroke-width:4.56213;stroke-linecap:round;stroke-linejoin:round"/><path d="m8.79 64.502-6.593-8.92L5.17 33.22l4.912-7.368c6.177-.992 9.155 4.594 7.24 10.341-.935 2.804-4.204 4.735-4.654 7.885-.996 6.97 8.932 13.047.387 18.743-1.627 1.085-2.363 2.224-4.265 1.68" style="opacity:1;fill:#2c3d18;fill-opacity:1;stroke-width:3.96875;stroke-linecap:round;stroke-linejoin:round"/><path d="m30.534 6.246 10.368-3.832 28.515 12.172c.75 8.173-2.75 8.173-10.256 7.1-4.687-.67-9.381 2.364-14.427 1.803-3.196-.355-5.69-6.123-7.438-8.452-2.04-2.72-14.76-2.127-6.762-8.791" style="opacity:.8;fill:#2c3d18;fill-opacity:1;stroke-width:3.46037;stroke-linecap:round;stroke-linejoin:round"/><path d="m34.38 5.137 9.002-3.327L68.14 12.378c.65 7.097-2.387 7.096-8.905 6.165-4.07-.581-8.145 2.053-12.526 1.566-2.775-.309-4.942-5.317-6.459-7.34-1.77-2.36-12.814-1.846-5.87-7.632" style="opacity:1;fill:#2c3d18;fill-opacity:1;stroke-width:3.00449;stroke-linecap:round;stroke-linejoin:round"/><path d="M22.108 82.183c9.97-.295 15.604-15.346 25.345-14.372 4.883.488 10.367 4.77 15.146 4.172 8.107-1.013 5.249-6.603 15.609-2.163L63.062 84.656z" style="opacity:.8;fill:#2c3d18;fill-opacity:1;stroke-width:4.74501;stroke-linecap:round;stroke-linejoin:round"/><path d="M27.145 83.245c8.34-.247 13.052-12.836 21.199-12.022 4.084.409 8.67 3.99 12.668 3.49 6.78-.847 4.39-5.523 13.055-1.81L61.4 85.314Z" style="opacity:1;fill:#2c3d18;fill-opacity:1;stroke-width:3.96875;stroke-linecap:round;stroke-linejoin:round"/><path d="M43.947.151 14.83 12.192a2 2 0 0 0-.98.877L3.357 32.155a2 2 0 0 0-.228.692L.018 55.93a1.99 1.99 0 0 0 .455 1.548l23.963 28.184a1.99 1.99 0 0 0 1.376.693l35.48 2.395a1.99 1.99 0 0 0 1.563-.604l19.85-20.619a2 2 0 0 0 .522-1.02l4.81-26.374a2 2 0 0 0-.092-1.045l-8.681-23.426a1.99 1.99 0 0 0-1.063-1.127L45.504.166a1.99 1.99 0 0 0-1.557-.015m.735 3.99 31.152 13.69 8.201 22.127-4.605 25.25-18.793 19.521-33.721-2.275L4.07 55.583l2.944-21.84 9.976-18.15Z" style="color:#000;fill:#212121;stroke-linecap:round;stroke-linejoin:round;-inkscape-stroke:none"/></svg>
